!!!!SEGMENT: pl-kk--kk-i-389--004-007_anonim--missa-no-4-agnus.krn
!!!cenid: 17xx:2482
!!!COM: Anonim
!!!COM-rismID: pe30004985
!!!CDT:
!!!CNT:
!!!OPR: [Missa] No. 4.
!!!OTL: Agnus
!!!OMV: 007
!!!PDT:
!!!AGN: Sacred; Mass
!!!YEC: Copyright 2022 Narodowy Instytut Fryderyka Chopina (https://polishscores.org)
!!!YEM: License CC-BY-4.0 (https://creativecommons.org/licenses/by/4.0)
!!!SMS-siglum: PL-Kk
!!!SMS-shelfmark: Kk.I.389
!!!SMS-variant:
!!!SMS-altvar:
!!!SMS-shelfwork: 004-007 M
!!!NIFC-rismSourceID: 1001146182
!!!NIFC-rismChildID: 1001146623
!!!NIFC-islandoraID: pl-kk:6976
!!!URL-pdf-islandora: https://repozytorium.nifc.pl/islandora/object/pl-kk%3A6976/datastream/PDF/view
!!!URL-scan: https://polish.musicsources.pl/pl/lokalizacje/galeria/rekopisy/5999/1 @EN{Scan on Polish Music Sources Website} @PL{Skany w portalu Dziedzictwo Muzyki Polskiej w otwartym dostępie}
!!!IIIF:
!!!ONB-nifc: UWAGA: S – skan 8-9, A – 27-28 , T –46-47 , B – 65-66 . Części Mszy: Rorate, Kyrie, Gloria, Graduale, Sanctus, Benedictus, Agnus, Dona
!!!AIN: 1 alto 1 bass 1 soprn 1 tenor
!!!key: F
**kern	**text	**kern	**text	**kern	**text	**kern	**text
*part4	*part4	*part3	*part3	*part2	*part2	*part1	*part1
*staff4	*staff4	*staff3	*staff3	*staff2	*staff2	*staff1	*staff1
*I"Basso.	*	*I"Tenore.	*	*I"Alto.	*	*I"Soprano.	*
*I'[B]	*	*I'[T]	*	*I'[A]	*	*I'[S]	*
*ICvox	*	*ICvox	*	*ICvox	*	*ICvox	*
*Ibass	*	*Itenor	*	*Ialto	*	*Isoprn	*
*clefF4	*	*clefC4	*	*clefC3	*	*clefC1	*
*k[b-]	*	*k[b-]	*	*k[b-]	*	*k[b-]	*
*F:	*	*F:	*	*F:	*	*F:	*
*M2/2	*	*M2/2	*	*M2/2	*	*M2/2	*
*met(C.|)	*	*met(C.|)	*	*met(C.|)	*	*met(C.|)	*
=1	=1	=1	=1	=1	=1	=1	=1
!!LO:TX:t=P:problem: all\right	!	!	!	!	!	!	!
4F\	Ag-	4c\	Ag-	4a\	A-	4cc\	A-
4G\	-nus	4c\	-nus	4g\	-gnus	4b-\	-gnus
4A\	De-	4c\	De-	4f\	De-	4a\	De-
8B-\	-i	8c\	-i	8g\	-i	8b-\	-i
8Bn\	qui	8c\	qui	8f\	qui	8a\	qui
=2	=2	=2	=2	=2	=2	=2	=2
4c\	tol-	4c\	tol-	4f\	tol-	4a\	tol-
4C/	-lis	4c\	-lis	4e\	-lis	4g\	-lis,
4r	.	4r	.	4r	.	4r	.
4C/	pec-	4c\	pec-	8e\L	qui	8g\L	qui
.	.	.	.	8f\J	.	8a\J	.
=3	=3	=3	=3	=3	=3	=3	=3
*	*	*2\right	*	*	*	*	*
2C/	-ca-	2c\	-ca-	4g\	tol-	4b-\	tol-
.	.	.	.	4f\	.	4a\	.
4C/	-ta	4c\	-ta	4g\	-lis	4b-\	-lis
4C/	pec-	4c\	pec-	4e\	pec-	4g\	pec-
=4	=4	=4	=4	=4	=4	=4	=4
*2\right	*	*	*	*	*	*	*
2F\	-ca-	2.c\	-ca-	4f\	-ca-	4a\	-ca-
.	.	.	.	4a\	.	4cc\	.
4E\	.	.	.	4g\	.	4b-\	.
4F\	-ta	4c\	-ta	4f\	-ta	4a\	-ta
=5	=5	=5	=5	=5	=5	=5	=5
*	*	*	*	*2\right	*	*2\right	*
2C/	mun-	2c\	mun-	2f\	mun-	2a\	mun-
2C/	-di	2c\	-di	2e\	-di,	2g\	-di,
!LO:LB:g=original	!	!LO:LB:g=original	!	!LO:LB:g=original	!	!	!
=6	=6	=6	=6	=6	=6	=6	=6
2.C/	mi-	2.G/	mi-	2.e\	mi-	2.cc\	mi-
4C/	-se-	4G/	-se-	4e\	-se-	4cc\	-se-
!	!	!	!	!	!	!LO:LB:g=original	!
=7	=7	=7	=7	=7	=7	=7	=7
2.D\	-re-	2G/	-re-	2f\	-re-	2bn\	-re-
.	.	2G/	-re	2f\	-re,	2b\	-re
4D\	-re	.	.	.	.	.	.
=8	=8	=8	=8	=8	=8	=8	=8
2.E\	mi-	2.c\	mi-	2g\	mi-	2b-X\	mi-
.	.	.	.	2g\	-se-	2b-\	-se-
4E\	-se-	4c\	-se-	.	.	.	.
=9	=9	=9	=9	=9	=9	=9	=9
4F\	-re-	4c\	-re-	4f\	-re-	4a\	-re-
4G\	.	4B-\	.	4e\	.	4b-\	.
4A\	.	4A\	.	4f\	.	4cc\	.
4B-\	-re	4B-\	-re	4g\	-re	4dd\	-re
=10	=10	=10	=10	=10	=10	=10	=10
2c\	no-	1c	no-	2f\	no-	2a\	no-
2C/	.	.	.	2e\	.	2g\	.
=11	=11	=11	=11	=11	=11	=11	=11
2F\	-bis,	2c\	-bis,	2f\	-bis,	2a\	-bis,
2r	.	2r	.	2r	.	2r	.
=12	=12	=12	=12	=12	=12	=12	=12
2.D/	mi-	2.G/	mi-	2.e\	mi-	2cc\	mi-
.	.	.	.	.	.	2cc\	-se-
4C/	-se-	4G/	-se-	4e\	-se-	.	.
=13	=13	=13	=13	=13	=13	=13	=13
2.D\	.	2G/	-re-	2f\	-re-	2bn\	-re-
.	.	2G/	-re	2f\	-re	2b\	-re
4D\	.	.	.	.	.	.	.
=14	=14	=14	=14	=14	=14	=14	=14
2.E\	mi-	2.c\	mi-	2.g\	mi-	2b-X\	mi-
.	.	.	.	.	.	2b-\	-se-
4E\	-se-	4c\	-se-	4g\	-se-	.	.
!LO:LB:g=original	!	!	!	!LO:LB:g=original	!	!	!
=15	=15	=15	=15	=15	=15	=15	=15
4F\	-re-	4c\	-re-	4f\	-re-	4a\	-re-
4G\	.	4B-\	.	4e\	.	4b-\	.
!	!	!LO:LB:g=original	!	!	!	!	!
4A\	.	4A\	.	4f\	.	4cc\	.
4B-\	-re	4B-\	-re	4g\	-re	4dd\	-re
=16	=16	=16	=16	=16	=16	=16	=16
2c\	no-	1c	no-	2f\	no-	2a\	no-
2C/	.	.	.	2e\	.	2g\	.
=17	=17	=17	=17	=17	=17	=17	=17
1F	-bis.	2c\	-bis.	2f\	-bis.	2a\	-bis.
.	.	2r	.	2r	.	2r	.
!	!	!	!	!	!	!LO:LB:g=original	!
=18||	=18||	=18||	=18||	=18||	=18||	=18||	=18||
*	*	*	*	*	*	*clefC1	*
*	*	*	*	*	*	*k[b-]	*
*M2/2	*	*M2/2	*	*M2/2	*	*M2/2	*
*met(C.|)	*	*met(C.|)	*	*met(C.|)	*	*met(C.|)	*
2F\	Ag-	2F/	Ag-	2c\	Ag-	2a\	Ag-
2F\	-nus	2F/	-nus	2d\	-nus	2b-\	-nus
=19	=19	=19	=19	=19	=19	=19	=19
4F\	De-	4c\	De-	4c\	De-	4a\	De-
4C/	.	4B-\	.	8d\L	.	8b-\L	.
.	.	.	.	8e\J	.	8g\J	.
4FF/	-i	4c\	-i	4f\	-i	4a\	-i
4F\	qui	4c\	qui	4f\	qui	4a\	qui
=20	=20	=20	=20	=20	=20	=20	=20
4c\	tol-	4c\	tol-	8f\L	tol-	8a\L	to-
.	.	.	.	8e\J	.	8g\J	.
4C/	-lis	4c\	-lis	4e\	-lis	4g\	-lis
4r	.	4r	.	4r	.	4r	.
4F\	pec-	4c\	pec-	4f\	pec-	4a\	pec-
!	!	!	!	!LO:LB:g=original	!	!	!
=21	=21	=21	=21	=21	=21	=21	=21
2C/	-ca-	2c\	-ca-	4g\	-ca-	4b-\	-ca-
.	.	.	.	4f\	.	4a\	.
2C/	-ta	2c\	-ta	4g\	.	4b-\	.
.	.	.	.	4e\	-ta	4g\	-ta
!LO:LB:g=original	!	!	!	!	!	!	!
=22	=22	=22	=22	=22	=22	=22	=22
4F\	mun-	1c	mun-	1f	mun-	1a	mun-
4c\	.	.	.	.	.	.	.
4A\	.	.	.	.	.	.	.
4F\	.	.	.	.	.	.	.
=23	=23	=23	=23	=23	=23	=23	=23
!LO:TX:b:t=Dona nobis ut Kyrie.	!	!	!	!LO:TX:b:t=Dona nobis ut Kyrie.	!	!LO:TX:b:t=Dona nobis\n ut Kyrie.	!
1C	-di	1c	-di	1e	-di.	1g	-di.
==	==	==	==	==	==	==	==
*-	*-	*-	*-	*-	*-	*-	*-
!!!system-decoration: [(s1,s2,s3,s4)]
!!!ENC: Andrzej Gręziak
!!!END: 2023-11-07
!!!EED: Jan Barakat
!!!EEV: 2023-11-30
